images/chevron-down-blue.svg

<svg height="9" viewBox="0 0 14 9" width="14" xmlns="http://www.w3.org/2000/svg"><path d="m237.733584 2666.25669-5.733463 6.80219-5.733463-6.80219c-.268041-.3182-.727367-.34402-1.025916-.05811-.298308.28616-.322763.77585-.05448 1.09431l6.234193 7.39648c.143343.16994.34165.25672.540441.25672.0523-.0031.065133 0 .078208 0 .198791 0 .397098-.08678.540441-.25672l6.234193-7.39648c.268283-.31846.243828-.80815-.05448-1.09431-.298307-.28591-.757875-.26009-1.025674.05811z" fill="#007aff" fill-rule="evenodd" transform="translate(-225 -2666)"/></svg>

<?xml version="1.0" encoding="UTF-8"?>
<svg width="14px" height="9px" viewBox="0 0 14 9" version="1.1" xmlns="http://www.w3.org/2000/svg" xmlns:xlink="http://www.w3.org/1999/xlink">
    <!-- Generator: Sketch 42 (36781) - http://www.bohemiancoding.com/sketch -->
    <title>Arrow Copy 5</title>
    <desc>Created with Sketch.</desc>
    <defs></defs>
    <g id="Mobile" stroke="none" stroke-width="1" fill="none" fill-rule="evenodd">
        <g id="iPhone-7" transform="translate(-225.000000, -2666.000000)" fill="#007AFF">
            <path d="M237.733584,2666.25669 L232.000121,2673.05888 L226.266658,2666.25669 C225.998617,2665.93849 225.539291,2665.91267 225.240742,2666.19858 C224.942434,2666.48474 224.917979,2666.97443 225.186262,2667.29289 L231.420455,2674.68937 C231.563798,2674.85931 231.762105,2674.94609 231.960896,2674.94609 C232.013196,2674.94299 232.026029,2674.94609 232.039104,2674.94609 C232.237895,2674.94609 232.436202,2674.85931 232.579545,2674.68937 L238.813738,2667.29289 C239.082021,2666.97443 239.057566,2666.48474 238.759258,2666.19858 C238.460951,2665.91267 238.001383,2665.93849 237.733584,2666.25669 Z" id="Arrow-Copy-5"></path>
        </g>
    </g>
</svg>
